X:7456
T:The Wedding Ring
O:england
B:Joyce, P. W.; "Old Irish Folk Music and Songs"
R:song air
H:From Lewis O'Brien of Coolfree: 1852.
L:1/8
M:C
K:G
"Moderate"EAAB cedc|BAGB d>B G2|EAAB c2 d2|efdB A2 A2:|
eaag e2 de/f/|gedc BG G2|eaag efga|bagb a2 ab|
c'2 b2 a2 e2|dBge dB G2|EAAB c2 d2|efdB A2 A2||
